X: 30649
T: Ookpik
R: waltz
M: 3/4
K: Gmajor
D>E|G3 F G>B|A2F2 E>D|E2 G3 A|G2 B2 dB|(e4e) g|e2 d2 B>G|
B2d3e|d2 B2 d>B|e4 g>g|e2 d2 B>G|B3 d/e/ B/_B/A/G/|(E4E)D|
C3 D E>G|A3F E>D|E2 G3A|1 G4 D>E:|2 G2 B2 d>B||
e2 B3c|B3A GBe|d2 B3c/d/|B4 _B2|A4 A>B|
A2 G2 E>D|1 E6|G,A,B, DEG ABd:|2 E3F GE|D2 E2 F2||

